symbols/web/library_books/materialsymbolsoutlined/library_books_wght100_48px.svg

<svg xmlns="http://www.w3.org/2000/svg" height="48" width="48"><path d="M19.15 26.4h7.6v-1.1h-7.6Zm0-5.55h14.4v-1.1h-14.4Zm0-5.55h14.4v-1.1h-14.4ZM15.4 34q-1.15 0-1.925-.775-.775-.775-.775-1.925v-22q0-1.15.775-1.925Q14.25 6.6 15.4 6.6h22q1.15 0 1.925.775.775.775.775 1.925v22q0 1.15-.775 1.925Q38.55 34 37.4 34Zm0-1.1h22q.6 0 1.1-.5.5-.5.5-1.1v-22q0-.6-.5-1.1-.5-.5-1.1-.5h-22q-.6 0-1.1.5-.5.5-.5 1.1v22q0 .6.5 1.1.5.5 1.1.5Zm-4.8 5.9q-1.15 0-1.925-.775Q7.9 37.25 7.9 36.1V13H9v23.1q0 .6.5 1.1.5.5 1.1.5h23.1v1.1Zm3.2-31.1v25.2V7.7Z"/></svg>

<svg xmlns="http://www.w3.org/2000/svg" height="48" width="48"><path d="M19.15 20.85H33.55V19.75H19.15ZM19.15 26.4H26.75V25.3H19.15ZM19.15 15.3H33.55V14.2H19.15ZM15.4 34Q14.25 34 13.475 33.225Q12.7 32.45 12.7 31.3V9.3Q12.7 8.15 13.475 7.375Q14.25 6.6 15.4 6.6H37.4Q38.55 6.6 39.325 7.375Q40.1 8.15 40.1 9.3V31.3Q40.1 32.45 39.325 33.225Q38.55 34 37.4 34ZM15.4 32.9H37.4Q38 32.9 38.5 32.4Q39 31.9 39 31.3V9.3Q39 8.7 38.5 8.2Q38 7.7 37.4 7.7H15.4Q14.8 7.7 14.3 8.2Q13.8 8.7 13.8 9.3V31.3Q13.8 31.9 14.3 32.4Q14.8 32.9 15.4 32.9ZM13.8 7.7Q13.8 7.7 13.8 8.15Q13.8 8.6 13.8 9.3V31.3Q13.8 32 13.8 32.45Q13.8 32.9 13.8 32.9Q13.8 32.9 13.8 32.45Q13.8 32 13.8 31.3V9.3Q13.8 8.6 13.8 8.15Q13.8 7.7 13.8 7.7ZM10.6 38.8Q9.45 38.8 8.675 38.025Q7.9 37.25 7.9 36.1V13H9V36.1Q9 36.7 9.5 37.2Q10 37.7 10.6 37.7H33.7V38.8Z"/></svg>
